icons/svg/seamark/radar_reflector.svg

<?xml version="1.0" encoding="UTF-8" standalone="no"?>
<svg
   xmlns:dc="http://purl.org/dc/elements/1.1/"
   xmlns:cc="http://creativecommons.org/ns#"
   xmlns:rdf="http://www.w3.org/1999/02/22-rdf-syntax-ns#"
   xmlns:svg="http://www.w3.org/2000/svg"
   xmlns="http://www.w3.org/2000/svg"
   xmlns:sodipodi="http://sodipodi.sourceforge.net/DTD/sodipodi-0.dtd"
   xmlns:inkscape="http://www.inkscape.org/namespaces/inkscape"
   width="580"
   height="580"
   id="svg2"
   version="1.1"
   inkscape:version="0.48.4 r9939"
   sodipodi:docname="pylon.svg">
  <defs
     id="defs13">
    <inkscape:path-effect
       effect="gears"
       id="path-effect3774"
       is_visible="true"
       teeth="6"
       phi="-1.2" />
    <inkscape:path-effect
       effect="bend_path"
       id="path-effect3772"
       is_visible="false"
       bendpath="m 95.790098,316.51174 c 144.429032,-206.42506 223.313032,-11.7428 339.548092,0"
       prop_scale="1.19"
       scale_y_rel="false"
       vertical="false"
       bendpath-nodetypes="cc" />
  </defs>
  <sodipodi:namedview
     pagecolor="#ffffff"
     bordercolor="#666666"
     borderopacity="1"
     objecttolerance="10"
     gridtolerance="10"
     guidetolerance="10"
     inkscape:pageopacity="0"
     inkscape:pageshadow="2"
     inkscape:window-width="1920"
     inkscape:window-height="1004"
     id="namedview11"
     showgrid="false"
     inkscape:zoom="0.81379307"
     inkscape:cx="206.76411"
     inkscape:cy="430.10275"
     inkscape:window-x="1680"
     inkscape:window-y="0"
     inkscape:window-maximized="1"
     inkscape:current-layer="svg2"
     inkscape:snap-center="true"
     inkscape:snap-object-midpoints="true" />
  <metadata
     id="metadata2975">image/svg+xmlen<rdf:RDF>
  <cc:Work
     rdf:about="">
    <dc:format>image/svg+xml</dc:format>
    <dc:type
       rdf:resource="http://purl.org/dc/dcmitype/StillImage" />
    <dc:title></dc:title>
  </cc:Work>
</rdf:RDF>
</metadata>
  <path
     sodipodi:type="inkscape:offset"
     inkscape:radius="36.535255"
     inkscape:original="M 245.25 70.84375 C 237.88787 72.334267 230.58883 74.198353 223.375 76.4375 L 241.40625 146.875 C 246.17685 145.2767 250.90857 144.50214 255.71875 143.78125 A 12.902002 12.902002 0 0 0 259.15625 143.5625 C 340.32102 126.63629 419.54253 178.49149 436.46875 259.65625 C 441.06868 281.71389 440.62235 304.53934 435.1875 326.40625 A 12.90129 12.90129 0 0 0 434.71875 331.4375 C 434.03537 334.94409 433.22663 338.41051 432 341.8125 L 502 361.4375 C 504.40713 354.26495 506.43423 346.99424 508.09375 339.65625 L 461.5625 326.71875 C 466.15953 305.0971 466.63968 282.82274 462.96875 261.03125 C 477.38255 257.88908 494.60807 249.48384 509.1875 245.75 C 507.69712 238.38199 505.8033 231.09458 503.5625 223.875 L 456.8125 235.84375 C 449.47147 213.26664 437.8035 193.01104 422.96875 175.8125 L 457.4375 142.09375 C 454.95694 139.29231 452.42661 136.51821 449.78125 133.8125 C 447.12121 131.09179 444.38567 128.49392 441.625 125.9375 L 407.09375 159.6875 C 389.87846 144.25656 369.75321 132.28102 347.875 124.5625 L 360.9375 78 C 353.76347 75.594567 346.52714 73.563943 339.1875 71.90625 L 326.15625 118.4375 C 303.94547 113.69263 280.48451 113.21608 256.875 117.71875 L 245.25 70.84375 z M 289.75 185.625 C 232.15504 185.625 185.125 232.65504 185.125 290.25 C 185.125 347.84496 232.15504 394.875 289.75 394.875 C 347.34496 394.875 394.375 347.84496 394.375 290.25 C 394.375 232.65504 347.34496 185.625 289.75 185.625 z M 289.75 217.625 C 330.05088 217.625 362.375 249.94912 362.375 290.25 C 362.375 330.55088 330.05088 362.875 289.75 362.875 C 249.44912 362.875 217.125 330.55088 217.125 290.25 C 217.125 249.94912 249.44912 217.625 289.75 217.625 z "
     style="font-size:medium;font-style:normal;font-variant:normal;font-weight:normal;font-stretch:normal;text-indent:0;text-align:start;text-decoration:none;line-height:normal;letter-spacing:normal;word-spacing:normal;text-transform:none;direction:ltr;block-progression:tb;writing-mode:lr-tb;text-anchor:start;baseline-shift:baseline;opacity:0.372;color:#000000;fill:#e4e4e4;fill-opacity:1;fill-rule:nonzero;stroke:#a35151;stroke-width:0;stroke-linecap:round;stroke-linejoin:miter;stroke-miterlimit:4;stroke-opacity:1;stroke-dasharray:none;stroke-dashoffset:0;marker:none;visibility:visible;display:inline;overflow:visible;enable-background:accumulate;font-family:Sans;-inkscape-font-specification:Sans"
     id="path3937"
     d="M 246.25,34.3125 A 36.538909,36.538909 0 0 0 238,35.03125 c -8.56556,1.73416 -17.07397,3.894292 -25.46875,6.5 A 36.538909,36.538909 0 0 0 187.96875,85.5 L 206,155.9375 a 36.538909,36.538909 0 0 0 8.3125,15.375 c -39.3557,25.15512 -65.71875,69.14625 -65.71875,118.9375 0,77.48391 63.67234,141.15625 141.15625,141.15625 48.6614,0 91.86379,-25.12333 117.28125,-63 A 36.538909,36.538909 0 0 0 422.125,377 l 70,19.625 a 36.538909,36.538909 0 0 0 44.5,-23.5625 c 2.80815,-8.36748 5.16759,-16.82675 7.09375,-25.34375 a 36.538909,36.538909 0 0 0 -25.84375,-43.25 l -16.34375,-4.53125 c 0.1971,-4.27079 0.24887,-8.53709 0.1875,-12.8125 6.94011,-2.64443 12.71629,-4.99173 16.53125,-5.96875 A 36.538909,36.538909 0 0 0 545,238.5 c -1.75467,-8.67458 -3.95473,-17.16753 -6.53125,-25.46875 A 36.538909,36.538909 0 0 0 494.5,188.46875 l -16.34375,4.1875 c -2.24651,-4.3272 -4.63579,-8.55736 -7.15625,-12.6875 l 12,-11.75 a 36.538909,36.538909 0 0 0 1.78125,-50.34375 c -2.71957,-3.07136 -5.64438,-6.28943 -8.875,-9.59375 -3.28593,-3.36087 -6.48252,-6.39096 -9.46875,-9.15625 a 36.538909,36.538909 0 0 0 -50.34375,0.6875 L 404,111.625 c -4.06954,-2.60551 -8.22808,-5.04959 -12.46875,-7.375 L 396.125,87.875 a 36.538909,36.538909 0 0 0 -23.5625,-44.5 C 364.24344,40.585642 355.81009,38.214588 347.25,36.28125 A 36.538909,36.538909 0 0 0 304,62.0625 l -4.5625,16.28125 c -4.88184,-0.22392 -9.78876,-0.274173 -14.71875,-0.15625 l -4,-16.125 A 36.538909,36.538909 0 0 0 246.25,34.3125 z m 43.5,219.84375 c 20.765,0 36.09375,15.32875 36.09375,36.09375 0,20.765 -15.32875,36.09375 -36.09375,36.09375 -20.765,0 -36.09375,-15.32875 -36.09375,-36.09375 0,-20.765 15.32875,-36.09375 36.09375,-36.09375 z" />
  <g
     id="g1327"
     transform="matrix(28.917722,0,0,28.917722,58.658082,-16250.937)"
     style="stroke:#2c2c2c;stroke-opacity:1" />
  <g
     id="g1327-1"
     transform="matrix(28.917722,0,0,28.917722,-454.986,-16233.733)"
     style="stroke:#2c2c2c;stroke-opacity:1" />
  <path
     sodipodi:type="arc"
     style="color:#000000;fill:none;stroke:#000000;stroke-width:32;stroke-linecap:round;stroke-linejoin:miter;stroke-miterlimit:4;stroke-opacity:1;stroke-dasharray:none;stroke-dashoffset:0;marker:none;visibility:visible;display:inline;overflow:visible;enable-background:accumulate"
     id="path3008"
     sodipodi:cx="179.86281"
     sodipodi:cy="268.93292"
     sodipodi:rx="88.628052"
     sodipodi:ry="88.628052"
     d="m 268.49086,268.93292 a 88.628052,88.628052 0 1 1 -177.256104,0 88.628052,88.628052 0 1 1 177.256104,0 z"
     transform="translate(110.13719,21.067078)" />
  <path
     sodipodi:type="arc"
     style="color:#000000;fill:none;stroke:#000000;stroke-width:14.05007362;stroke-linecap:round;stroke-linejoin:miter;stroke-miterlimit:4;stroke-opacity:1;stroke-dasharray:none;stroke-dashoffset:0;marker:none;visibility:visible;display:inline;overflow:visible;enable-background:accumulate"
     id="path3008-6"
     sodipodi:cx="179.86281"
     sodipodi:cy="268.93292"
     sodipodi:rx="88.628052"
     sodipodi:ry="88.628052"
     d="m 105.1764,221.21634 a 88.628052,88.628052 0 0 1 150.10148,1.16019"
     transform="matrix(1.2837287,1.3130115,-1.3130115,1.2837287,412.21697,-291.39884)"
     sodipodi:start="3.7101198"
     sodipodi:end="5.7301166"
     sodipodi:open="true"
     inkscape:transform-center-x="-64.761047"
     inkscape:transform-center-y="-61.762219" />
  <path
     style="font-size:medium;font-style:normal;font-variant:normal;font-weight:normal;font-stretch:normal;text-indent:0;text-align:start;text-decoration:none;line-height:normal;letter-spacing:normal;word-spacing:normal;text-transform:none;direction:ltr;block-progression:tb;writing-mode:lr-tb;text-anchor:start;baseline-shift:baseline;color:#000000;fill:#000000;fill-opacity:1;stroke:none;stroke-width:22.60000038;marker:none;visibility:visible;display:inline;overflow:visible;enable-background:accumulate;font-family:Sans;-inkscape-font-specification:Sans"
     d="m 450.03332,133.57945 c -2.66004,-2.72071 -5.39307,-5.33629 -8.15374,-7.89271 l -51.86239,50.70576 c 2.81669,2.48153 5.55514,5.10075 8.22076,7.82718 2.65825,2.71888 5.18486,5.48702 7.59611,8.35049 l 51.8624,-50.70576 c -2.48056,-2.80144 -5.01778,-5.57925 -7.66314,-8.28496 z M 361.18608,77.751188 c -7.17403,-2.405433 -14.42511,-4.421744 -21.76475,-6.079437 l -19.61787,70.051979 c 7.36887,1.46649 14.6442,3.47095 21.76525,6.03525 z m 142.61405,145.867182 -70.43237,18.03366 c 5.13527,38.8795 46.14891,11.52441 76.06364,3.86315 -1.49038,-7.36801 -3.39047,-14.67723 -5.63127,-21.89681 z m 4.55047,115.78111 -71.27899,-19.78532 c -1.46976,7.37507 -2.26091,14.82771 -4.83058,21.95455 l 70.00778,19.61737 c 2.40713,-7.17255 4.44227,-14.44861 6.10179,-21.7866 z M 245.51472,70.612754 c -7.36213,1.490517 -14.68252,3.347971 -21.89635,5.587118 l 18.03366,70.432368 c 7.17615,-2.40423 14.26462,-2.94077 21.66391,-4.24207 z"
     id="path3800"
     inkscape:connector-curvature="0"
     sodipodi:nodetypes="sccsccsccccccccccccccccccc"
     inkscape:transform-center-y="-74.100584"
     inkscape:transform-center-x="-76.524883" />
</svg>

<svg width="580" height="580" viewBox="0 0 580 580" fill="none" xmlns="http://www.w3.org/2000/svg">
<path opacity="0.372" d="M246.25 34.3118C243.482 34.238 240.714 34.4791 238 35.0306C229.434 36.7647 220.926 38.9249 212.531 41.5306C203.578 44.3096 196.036 50.4232 191.464 58.607C186.893 66.7908 185.641 76.4187 187.969 85.4993L206 155.937C207.486 161.659 210.339 166.935 214.312 171.312C174.957 196.467 148.594 240.458 148.594 290.249C148.594 367.733 212.266 431.406 289.75 431.406C338.411 431.406 381.614 406.282 407.031 368.406C411.299 372.442 416.476 375.39 422.125 376.999L492.125 396.624C501.149 399.153 510.8 398.117 519.082 393.732C527.364 389.347 533.644 381.947 536.625 373.062C539.433 364.694 541.793 356.235 543.719 347.718C545.785 338.57 544.254 328.977 539.443 320.927C534.633 312.876 526.91 306.983 517.875 304.468L501.531 299.937C501.728 295.666 501.78 291.4 501.719 287.124C508.659 284.48 514.435 282.133 518.25 281.156C527.328 278.832 535.166 273.109 540.145 265.17C545.123 257.231 546.862 247.683 545 238.499C543.245 229.825 541.045 221.332 538.469 213.031C535.69 204.078 529.576 196.536 521.392 191.964C513.208 187.392 503.581 186.141 494.5 188.468L478.156 192.656C475.91 188.328 473.52 184.098 471 179.968L483 168.218C489.7 161.658 493.621 152.773 493.953 143.402C494.285 134.031 491.001 124.892 484.781 117.874C482.062 114.803 479.137 111.585 475.906 108.281C472.62 104.92 469.424 101.89 466.438 99.1243C459.558 92.7617 450.498 89.2852 441.128 89.4131C431.759 89.5411 422.797 93.2638 416.094 99.8118L404 111.624C399.93 109.019 395.772 106.575 391.531 104.249L396.125 87.8743C398.654 78.8503 397.618 69.1998 393.233 60.9177C388.847 52.6355 381.447 46.355 372.562 43.3743C364.243 40.585 355.81 38.2139 347.25 36.2806C338.11 34.212 328.525 35.7342 320.475 40.5324C312.426 45.3307 306.528 53.0382 304 62.0618L299.438 78.3431C294.556 78.1191 289.649 78.0689 284.719 78.1868L280.719 62.0618C278.799 54.3031 274.389 47.3878 268.163 42.3755C261.937 37.3633 254.24 34.5307 246.25 34.3118V34.3118ZM289.75 254.156C310.515 254.156 325.844 269.484 325.844 290.249C325.844 311.014 310.515 326.343 289.75 326.343C268.985 326.343 253.656 311.014 253.656 290.249C253.656 269.484 268.985 254.156 289.75 254.156Z" fill="#E4E4E4"/>
<path d="M378.628 289.999C378.628 313.505 369.291 336.048 352.67 352.669C336.049 369.29 313.506 378.627 290 378.627C266.495 378.627 243.952 369.29 227.331 352.669C210.71 336.048 201.372 313.505 201.372 289.999C201.372 266.494 210.71 243.951 227.331 227.33C243.952 210.709 266.495 201.371 290 201.371C313.506 201.371 336.049 210.709 352.67 227.33C369.291 243.951 378.628 266.494 378.628 289.999V289.999Z" stroke="black" stroke-width="32" stroke-linecap="round"/>
<path d="M256.775 130.681C283.738 125.059 311.686 126.37 338.002 134.494C364.319 142.618 388.144 157.287 407.246 177.129C426.347 196.971 440.101 221.336 447.218 247.942C454.336 274.549 454.585 302.527 447.942 329.256" stroke="black" stroke-width="25.8" stroke-linecap="round"/>
<path d="M450.033 133.58C447.373 130.859 444.64 128.244 441.879 125.687L390.017 176.393C392.834 178.875 395.572 181.494 398.238 184.22C400.896 186.939 403.423 189.707 405.834 192.571L457.696 141.865C455.216 139.063 452.678 136.286 450.033 133.58V133.58ZM361.186 77.7517C354.012 75.3463 346.761 73.33 339.421 71.6723L319.803 141.724C327.172 143.191 334.447 145.195 341.568 147.76L361.186 77.7517ZM503.8 223.619L433.368 241.653C438.503 280.532 479.516 253.177 509.431 245.516C507.941 238.148 506.041 230.838 503.8 223.619V223.619ZM508.35 339.4L437.071 319.615C435.602 326.99 434.81 334.442 432.241 341.569L502.249 361.187C504.656 354.014 506.691 346.738 508.35 339.4V339.4ZM245.515 70.6133C238.152 72.1038 230.832 73.9613 223.618 76.2004L241.652 146.633C248.828 144.229 255.916 143.692 263.316 142.391L245.515 70.6133Z" fill="black"/>
</svg>
